Obsidian-SemiLight/actions/22s/format-align-vertical-center.svg

<svg viewBox="0 0 22 22" xmlns="http://www.w3.org/2000/svg"><path d="m10 2v4h-2l3 3 3-3h-2v-4zm1 7h-5-3v1h16v-1h-3zm-8 3v1h1 3 4 7 1v-1h-1-14zm8 1-3 3h2v4h2v-4h2z" fill="#4d4d4d"/></svg>

<svg xmlns="http://www.w3.org/2000/svg" viewBox="0 0 22 22">
  <defs id="defs3051">
    <style type="text/css" id="current-color-scheme">
      .ColorScheme-Text {
        color:#4d4d4d;
      }
      </style>
  </defs>
 <path 
    style="fill:currentColor;fill-opacity:1;stroke:none" 
    d="M 10 2 L 10 6 L 8 6 L 11 9 L 14 6 L 12 6 L 12 2 L 10 2 z M 11 9 L 6 9 L 3 9 L 3 10 L 19 10 L 19 9 L 16 9 L 11 9 z M 3 12 L 3 13 L 4 13 L 7 13 L 11 13 L 18 13 L 19 13 L 19 12 L 18 12 L 4 12 L 3 12 z M 11 13 L 8 16 L 10 16 L 10 20 L 12 20 L 12 16 L 14 16 L 11 13 z "
    class="ColorScheme-Text"
    />  
</svg>
